packages/react/src/components/base/Icon/assets/icon-link-break.svg

<svg width="24" height="24" viewBox="0 0 24 24" xmlns="http://www.w3.org/2000/svg" fill="currentColor"> <path d="M18.3562 5.6443C17.8654 5.15341 17.2001 4.87693 16.506 4.87535C15.8118 4.87376 15.1452 5.14721 14.6522 5.63586L13.5637 6.7768C13.4629 6.88818 13.3409 6.97825 13.2047 7.04168C13.0685 7.10512 12.921 7.14064 12.7709 7.14616C12.6208 7.15167 12.4711 7.12706 12.3306 7.07378C12.1902 7.0205 12.0618 6.93963 11.9531 6.83594C11.8444 6.73225 11.7576 6.60785 11.6977 6.47006C11.6379 6.33227 11.6062 6.18389 11.6047 6.03368C11.6031 5.88346 11.6316 5.73445 11.6886 5.59544C11.7455 5.45643 11.8297 5.33024 11.9362 5.2243L13.0312 4.07211L13.05 4.05336C13.9642 3.13911 15.2042 2.62549 16.4972 2.62549C17.7901 2.62549 19.0301 3.13911 19.9444 4.05336C20.8586 4.96761 21.3722 6.2076 21.3722 7.50055C21.3722 8.79349 20.8586 10.0335 19.9444 10.9477L19.9256 10.9665L18.7734 12.0643C18.556 12.2611 18.2703 12.3652 17.9773 12.3544C17.6842 12.3436 17.4069 12.2189 17.2045 12.0067C17.0021 11.7945 16.8905 11.5116 16.8936 11.2184C16.8967 10.9252 17.0141 10.6447 17.2209 10.4368L18.3619 9.34836C18.8509 8.85567 19.1248 8.18934 19.1238 7.49517C19.1227 6.80099 18.8468 6.1355 18.3562 5.6443ZM10.4362 17.2243L9.34781 18.3652C8.8555 18.8575 8.18779 19.1341 7.49156 19.1341C6.79533 19.1341 6.12762 18.8575 5.63531 18.3652C5.143 17.8729 4.86643 17.2052 4.86643 16.509C4.86643 15.8128 5.143 15.145 5.63531 14.6527L6.77625 13.5643C6.98306 13.3564 7.10051 13.0759 7.10357 12.7827C7.10664 12.4895 6.99508 12.2066 6.79266 11.9944C6.59025 11.7822 6.31297 11.6574 6.01992 11.6467C5.72686 11.6359 5.44118 11.74 5.22375 11.9368L4.07156 13.0318L4.05281 13.0505C3.13856 13.9648 2.62494 15.2048 2.62494 16.4977C2.62494 17.7907 3.13856 19.0307 4.05281 19.9449C4.96706 20.8592 6.20705 21.3728 7.5 21.3728C8.79294 21.3728 10.0329 20.8592 10.9472 19.9449L10.9659 19.9262L12.0637 18.774C12.1703 18.668 12.2545 18.5418 12.3114 18.4028C12.3684 18.2638 12.3969 18.1148 12.3953 17.9646C12.3937 17.8144 12.3621 17.666 12.3023 17.5282C12.2424 17.3904 12.1556 17.266 12.0469 17.1623C11.9382 17.0587 11.8098 16.9778 11.6694 16.9245C11.5289 16.8712 11.3792 16.8466 11.2291 16.8521C11.079 16.8576 10.9315 16.8932 10.7953 16.9566C10.6591 17.02 10.537 17.1101 10.4362 17.2215V17.2243ZM20.25 13.8755H18C17.7016 13.8755 17.4155 13.9941 17.2045 14.2051C16.9935 14.416 16.875 14.7022 16.875 15.0005C16.875 15.2989 16.9935 15.5851 17.2045 15.796C17.4155 16.007 17.7016 16.1255 18 16.1255H20.25C20.5484 16.1255 20.8345 16.007 21.0455 15.796C21.2565 15.5851 21.375 15.2989 21.375 15.0005C21.375 14.7022 21.2565 14.416 21.0455 14.2051C20.8345 13.9941 20.5484 13.8755 20.25 13.8755ZM3.75 10.1255H6C6.29837 10.1255 6.58452 10.007 6.79549 9.79604C7.00647 9.58506 7.125 9.29892 7.125 9.00055C7.125 8.70218 7.00647 8.41603 6.79549 8.20505C6.58452 7.99407 6.29837 7.87555 6 7.87555H3.75C3.45163 7.87555 3.16548 7.99407 2.9545 8.20505C2.74352 8.41603 2.625 8.70218 2.625 9.00055C2.625 9.29892 2.74352 9.58506 2.9545 9.79604C3.16548 10.007 3.45163 10.1255 3.75 10.1255ZM15 16.8755C14.7016 16.8755 14.4155 16.9941 14.2045 17.2051C13.9935 17.416 13.875 17.7022 13.875 18.0005V20.2505C13.875 20.5489 13.9935 20.8351 14.2045 21.046C14.4155 21.257 14.7016 21.3755 15 21.3755C15.2984 21.3755 15.5845 21.257 15.7955 21.046C16.0065 20.8351 16.125 20.5489 16.125 20.2505V18.0005C16.125 17.7022 16.0065 17.416 15.7955 17.2051C15.5845 16.9941 15.2984 16.8755 15 16.8755ZM9 7.12555C9.29837 7.12555 9.58452 7.00702 9.79549 6.79604C10.0065 6.58506 10.125 6.29892 10.125 6.00055V3.75055C10.125 3.45218 10.0065 3.16603 9.79549 2.95505C9.58452 2.74407 9.29837 2.62555 9 2.62555C8.70163 2.62555 8.41548 2.74407 8.2045 2.95505C7.99352 3.16603 7.875 3.45218 7.875 3.75055V6.00055C7.875 6.29892 7.99352 6.58506 8.2045 6.79604C8.41548 7.00702 8.70163 7.12555 9 7.12555Z"/> </svg>

<svg viewBox="0 0 24 24" xmlns="http://www.w3.org/2000/svg" aria-hidden="true" fill="currentColor"><path d="M18.356 5.644a2.625 2.625 0 0 0-3.704-.008l-1.088 1.14a1.124 1.124 0 1 1-1.628-1.552l1.095-1.152.019-.019a4.875 4.875 0 1 1 6.894 6.895l-.018.018-1.153 1.098a1.125 1.125 0 0 1-1.552-1.627l1.14-1.089a2.625 2.625 0 0 0-.005-3.704m-7.92 11.58-1.088 1.141a2.625 2.625 0 1 1-3.713-3.712l1.141-1.089a1.125 1.125 0 0 0-1.552-1.627l-1.152 1.095-.02.018a4.875 4.875 0 0 0 6.895 6.895l.019-.019 1.098-1.152a1.124 1.124 0 1 0-1.628-1.553zm9.814-3.348H18a1.125 1.125 0 0 0 0 2.25h2.25a1.125 1.125 0 1 0 0-2.25m-16.5-3.75H6a1.125 1.125 0 1 0 0-2.25H3.75a1.125 1.125 0 1 0 0 2.25M15 16.876A1.125 1.125 0 0 0 13.875 18v2.25a1.125 1.125 0 1 0 2.25 0V18A1.125 1.125 0 0 0 15 16.876m-6-9.75A1.125 1.125 0 0 0 10.125 6V3.75a1.125 1.125 0 1 0-2.25 0V6A1.125 1.125 0 0 0 9 7.126"/></svg>
